X:43
T:Tom Sullivan's
Z: id:dc-polka-37
M:2/4
L:1/8
K:D Mixolydian
D>E|F/E/F/G/ AB|cA Gc|Ad d^c|d2 d>e|!
fd ed|^cA AA/B/|cA GE|D2:|!
d>e|fd ed|^cA A>e|fd e^c|d2 d>e|!
fd ed|^cA AA/B/|cA GE|D2 d>e|!
fd ed|^cA A>e|fd ef|g2 a>g|!
fd ed|^cA AA/B/|cA GE|D2|]!

